brandFactory_export/1.Light/Microchip_1Light.svg

<?xml version="1.0" encoding="UTF-8"?>
<svg width="24px" height="24px" viewBox="0 0 24 24" version="1.1" xmlns="http://www.w3.org/2000/svg" xmlns:xlink="http://www.w3.org/1999/xlink">
    <title>1.Light/Microchip_1Light</title>
    <g id="Symbols" stroke="none" stroke-width="1" fill="none" fill-rule="evenodd">
        <g id="1.Light/Microchip_1Light" fill="#5CB615" fill-rule="nonzero">
            <path d="M18.7428571,18.4571429 C18.7428571,18.5848739 18.5613445,18.7529412 18.3764706,18.7529412 L5.25714286,18.7529412 C5.06218487,18.7529412 4.8907563,18.5882353 4.8907563,18.4571429 L4.8907563,5.20672269 C4.8907563,5.08571429 5.08571429,4.90084034 5.25714286,4.90084034 L18.3764706,4.90084034 C18.5478992,4.90084034 18.7428571,5.08571429 18.7428571,5.20672269 L18.7428571,18.4571429 Z M23.1260504,12.3092437 C23.3983193,12.3092437 23.6201681,12.087395 23.6201681,11.8151261 C23.6201681,11.5428571 23.3983193,11.3210084 23.1260504,11.3210084 L19.7344538,11.3210084 L19.7344538,9.34117647 L23.1294118,9.34117647 C23.4016807,9.34117647 23.6235294,9.11932773 23.6235294,8.84705882 C23.6235294,8.57478992 23.4016807,8.35294118 23.1294118,8.35294118 L19.7344538,8.35294118 L19.7344538,5.20672269 C19.7344538,4.52773109 19.0890756,3.9092437 18.3764706,3.9092437 L15.2773109,3.9092437 L15.2773109,0.494117647 C15.2806723,0.221848739 15.0588235,0 14.7865546,0 C14.5142857,0 14.292437,0.221848739 14.292437,0.494117647 L14.292437,3.90588235 L12.312605,3.90588235 L12.312605,0.494117647 C12.312605,0.221848739 12.0907563,0 11.8184874,0 C11.5462185,0 11.3243697,0.221848739 11.3243697,0.494117647 L11.3243697,3.90588235 L9.34453782,3.90588235 L9.34453782,0.494117647 C9.34453782,0.221848739 9.12268908,0 8.84705882,0 C8.57478992,0 8.35294118,0.221848739 8.35294118,0.494117647 L8.35294118,3.90588235 L5.25378151,3.90588235 C4.54453782,3.90588235 3.89579832,4.52436975 3.89579832,5.20336134 L3.89579832,8.34957983 L0.494117647,8.34957983 C0.221848739,8.34957983 0,8.57142857 0,8.84705882 C0,9.11932773 0.221848739,9.34117647 0.494117647,9.34117647 L3.89915966,9.34117647 L3.89915966,11.3210084 L0.494117647,11.3210084 C0.221848739,11.3210084 0,11.5428571 0,11.8151261 C0,12.087395 0.221848739,12.3092437 0.494117647,12.3092437 L3.89915966,12.3092437 L3.89915966,14.2890756 L0.494117647,14.2890756 C0.221848739,14.2890756 0,14.5109244 0,14.7831933 C0,15.0554622 0.221848739,15.2773109 0.494117647,15.2773109 L3.89915966,15.2773109 L3.89915966,18.4537815 C3.89915966,19.1394958 4.53445378,19.7411765 5.25714286,19.7411765 L8.35630252,19.7411765 L8.35630252,23.1260504 C8.3697479,23.3983193 8.59831933,23.610084 8.87394958,23.6 C9.12941176,23.589916 9.33445378,23.3848739 9.34789916,23.1260504 L9.34789916,19.7411765 L11.3277311,19.7411765 L11.3277311,23.1260504 C11.3277311,23.3983193 11.5495798,23.6201681 11.8218487,23.6201681 C12.0941176,23.6201681 12.3159664,23.3983193 12.3159664,23.1260504 L12.3159664,19.7411765 L14.2957983,19.7411765 L14.2957983,23.1260504 C14.2957983,23.3983193 14.5176471,23.6201681 14.789916,23.6201681 C15.0621849,23.6201681 15.2840336,23.3983193 15.2840336,23.1260504 L15.2840336,19.7411765 L18.3831933,19.7411765 C19.1058824,19.7411765 19.7411765,19.1394958 19.7411765,18.4537815 L19.7411765,15.2773109 L23.1361345,15.2773109 C23.4084034,15.2638655 23.6201681,15.0352941 23.610084,14.7596639 C23.6,14.5042017 23.394958,14.2991597 23.1361345,14.2857143 L19.7344538,14.2857143 L19.7344538,12.3058824 L23.1260504,12.3092437 Z" id="Microchip_1Light"></path>
        </g>
    </g>
</svg>

<svg width="24" height="24" viewBox="0 0 24 24" xmlns="http://www.w3.org/2000/svg"><path d="M18.743 18.457c0 .128-.182.296-.367.296H5.257c-.195 0-.366-.165-.366-.296V5.207c0-.121.195-.306.366-.306h13.12c.17 0 .366.185.366.306v13.25zm4.383-6.148a.495.495 0 000-.988h-3.392v-1.98h3.395a.495.495 0 000-.988h-3.395V5.207c0-.68-.645-1.298-1.358-1.298h-3.099V.494a.49.49 0 00-.49-.494.495.495 0 00-.495.494v3.412h-1.98V.494a.495.495 0 00-.988 0v3.412h-1.98V.494a.496.496 0 00-.991 0v3.412h-3.1c-.708 0-1.357.618-1.357 1.297V8.35H.494a.496.496 0 000 .991H3.9v1.98H.494a.495.495 0 000 .988H3.9v1.98H.494a.495.495 0 000 .988H3.9v3.177c0 .685.635 1.287 1.358 1.287h3.1v3.385a.497.497 0 00.992 0l-.001-3.385h1.98v3.385a.495.495 0 00.988 0v-3.385h1.98v3.385a.495.495 0 00.988 0v-3.385h3.1c.722 0 1.357-.602 1.357-1.287v-3.177h3.395a.497.497 0 000-.992h-3.402v-1.98l3.392.004z" fill="#5CB615" fill-rule="nonzero"/></svg>
